dist/svg/u1F596_u1F3FB.svg

<?xml version="1.0" encoding="UTF-8"?><svg id="Layer_1" xmlns="http://www.w3.org/2000/svg" viewBox="0 0 40 40"><rect width="40" height="40" style="fill:none;"/><path d="M36.61554,19.64526c-1.17926-1.17932-3.09125-1.17932-4.27051,0l-5.4386,3.87018,2.8609-14.82751,.00067-.00226c.27533-1.42682-.63306-2.80182-2.02887-3.07111-1.39581-.26935-2.75055,.66901-3.02582,2.09589v.00006l-.00031-.00006-2.13129,11.04626-.76978-.00146,2.20691-12.61847c.25037-1.4314-.68182-2.79034-2.08215-3.03528-1.40033-.24487-2.73846,.71698-2.98877,2.14838l-2.36029,13.49512-1.02014-.00201-2.69977-11.69391c-.32031-1.38751-1.70288-2.25311-3.08801-1.93329-1.38513,.31976-2.24829,1.7038-1.92798,3.09137l2.42999,10.52551-.8692-.00171-1.83643-7.36542-.00012-.00073c-.35266-1.41437-1.75671-2.28223-3.13605-1.93829-1.37933,.34387-2.21167,1.76929-1.85901,3.18372l3.37402,13.53247,.02411-.00928c.85309,6.10223,6.07916,10.8031,12.41638,10.8031,3.46625,0,6.60425-1.40491,8.87579-3.67645l9.3443-9.3443c1.17926-1.17926,1.17926-3.09125,0-4.27051Z" style="fill:#ffcca8;"/><path d="M26.766,23.52967h-2.7024c-2.20914,0-4,1.79086-4,4v1.11382c1.7574-2.22329,4.05295-4.00041,6.7024-5.11382Z" style="fill:#e68e51;"/></svg>

<svg id="Layer_1" data-name="Layer 1" xmlns="http://www.w3.org/2000/svg" viewBox="0 0 40 40"><defs><style>.cls-1{fill:none;}.cls-2{fill:#ffcca8;}.cls-3{fill:#e68e51;}</style></defs><rect class="cls-1" width="40" height="40"/><path class="cls-2" d="M36.616,19.645a3.021,3.021,0,0,0-4.271,0l-5.439,3.87L29.767,8.688v0a2.575,2.575,0,1,0-5.055-.976h0L22.582,18.757l-.77,0L24.019,6.137a2.575,2.575,0,1,0-5.071-.887l-2.36,13.5-1.02,0-2.7-11.694A2.574,2.574,0,1,0,7.852,8.207l2.43,10.526-.869,0L7.576,11.366h0A2.607,2.607,0,0,0,4.44,9.427,2.606,2.606,0,0,0,2.581,12.61L5.955,26.143l.024-.01A12.541,12.541,0,0,0,27.271,33.26l9.345-9.344A3.021,3.021,0,0,0,36.616,19.645Z"/><path class="cls-3" d="M26.766,23.53h-2.7a4,4,0,0,0-4,4v1.113A16.906,16.906,0,0,1,26.766,23.53Z"/></svg>
